X:452
T:Drops of Brandy (Métis style)
R: Polka
M:2/4
L:1/8
S:After Ryan D'Aoust
Z:Judy Kavanagh Feb. 16, 2007
R:Reel
K:G
|:"G"DGGB|"C"AGAc|"G"BAGA|DGGB|"C"AGAc|"G"BAG2|
"C"efge|"G"d2Bd|[1 "C"cBAc| "G"BAG2:|[2 "C"cBAF| "G"G4G,4]|
|:[B3G3]B|BcBA|GABG|"D"DFAF|DFAB|"C"cBAG|"G"[B3G3] B|BcBA|"D"DFAF|"G"[G4G,4]::
[BG]ddd|[BG]ddd|[BG]def|gf/2e/2dc|[BG]ddd|[BG]ddB|"C"cBAF|"G"[G4G,4]:|

%%newpage

